!!!!SEGMENT: pl-sa--l-1636--012_anonim--keyboard-piece.krn
!!!cenid: 17xx:719
!!!COM: Anonim
!!!COM-rismid: pe30004985
!!!CDT:
!!!CNT:
!!!OTL: [Keyboard piece]
!!!PDT:
!!!AGN: Secular
!!!SMS-siglum: PL-SA
!!!SMS-shelfmark: L 1636
!!!SMS-shelfwork: 012 W
!!!SMS-variant:
!!!SMS-altvar:
!!!NIFC-rismid: 1001076396
!!!URL-scan: http://repozytorium.nifc.pl/skany/pl-sa-nut--l1636
!!!ONB-nifc: 4r, skan 0007, s. 8
**kern	**kern
*part2	*part1
*staff2	*staff1
*Iempty	*Iempty
*I"	*I"
*clefF4	*clefC1
*k[]	*k[]
*d:	*d:
*M3/4	*M3/4
=1	=1
*all\right	*all\right
2.r	4d/
.	8f/L
.	8g/
.	8a/
.	8b/J
*clefC3	*
=2	=2
!LO:N:vis=8	!
4A/L	4cc\
*	*2\right
8c/	2cc\
8d/	.
8e/	.
8f/J	.
=3	=3
4g\	4.b/
*2\right	*
2g\	.
.	8a/L
.	8b/
.	8cc/J
=4	=4
4.f\	4dd\
.	2dd\
8e\L	.
8f\	.
8g\J	.
=5	=5
2a\	4.cc\
.	8b\L
8a\L	8cc\
8e\J	8g#X\J
=6	=6
4.f\	4.a\
8e\L	8g\L
8f\	8a\
!LO:TX:a:t=P:problem:♯ above	!
8c#X\J	8e\J
=7	=7
*	*^
4r	4f/	4d\
2A/	2e/	4d\
.	.	4c#X\
*clefF4	*	*
=8	=8	=8
4D/	2.f/	2.d\
8F\L	.	.
8G\	.	.
8A\	.	.
8B\J	.	.
*	*v	*v
=9	=9
2c\	4.e/
.	8f/L
8c\L	8e/
8B\J	8d/J
=10	=10
4.A\	4.c#X/
8B\L	8d/L
8c\	8e/
8A\J	8c#/J
=11-	=11-
*	*^
4.B\	2.f/	2d\
8A\L	.	.
8B\	.	4d\
8G\J	.	.
*	*v	*v
=12-	=12-
4.A\	2e/
!LO:TX:a:t=P:problem:od tego miejsca słabo czytelne	!
8G\L	.
8A\	4c\
8F\J	.
=13-	=13-
2.ryy	2.f 2.d 2.A/
==	==
*-	*-
!!!system-decoration: s1,s2
!!!ENC: Marta Lawrence
!!!END: 2020-12-07
!!!ENC: Andrzej Borzym
!!!END: 2020-06-11
